packages/assets/static/images/icons/boot.svg

<svg width="24" height="24" viewBox="0 0 24 24" xmlns="http://www.w3.org/2000/svg">
<path d="M17.25 10.5H14.25V5.25C14.25 4.85218 14.092 4.47064 13.8107 4.18934C13.5294 3.90804 13.1478 3.75 12.75 3.75H2.25C2.12839 3.75002 2.00861 3.77961 1.90098 3.83622C1.79336 3.89283 1.70111 3.97476 1.63219 4.07496C1.56327 4.17515 1.51975 4.2906 1.50538 4.41136C1.49101 4.53211 1.50621 4.65455 1.54969 4.76813C2.58656 7.47188 2.37094 12.6159 1.52906 15.5428C1.51004 15.6102 1.50026 15.6799 1.5 15.75V18.75C1.5 19.1478 1.65804 19.5294 1.93934 19.8107C2.22064 20.092 2.60218 20.25 3 20.25H5.44781C5.68083 20.25 5.91066 20.1958 6.11906 20.0916L7.30219 19.5H8.82281L10.0059 20.0916C10.2143 20.1958 10.4442 20.25 10.6772 20.25H13.3228C13.5558 20.25 13.7857 20.1958 13.9941 20.0916L15.1772 19.5H16.6978L17.8809 20.0916C18.0893 20.1958 18.3192 20.25 18.5522 20.25H21C21.3978 20.25 21.7794 20.092 22.0607 19.8107C22.342 19.5294 22.5 19.1478 22.5 18.75V15.75C22.4985 14.3581 21.9449 13.0236 20.9607 12.0393C19.9764 11.0551 18.6419 10.5015 17.25 10.5ZM3.26813 5.25H12.75V7.5H9.75C9.55109 7.5 9.36032 7.57902 9.21967 7.71967C9.07902 7.86032 9 8.05109 9 8.25C9 8.44891 9.07902 8.63968 9.21967 8.78033C9.36032 8.92098 9.55109 9 9.75 9H12.75V10.5H9.75C9.55109 10.5 9.36032 10.579 9.21967 10.7197C9.07902 10.8603 9 11.0511 9 11.25C9 11.4489 9.07902 11.6397 9.21967 11.7803C9.36032 11.921 9.55109 12 9.75 12H17.25C18.1142 12.0011 18.9515 12.3 19.621 12.8465C20.2904 13.393 20.751 14.1535 20.925 15H3.21094C3.84375 12.1088 3.97594 8.04656 3.26813 5.25ZM21 18.75H18.5522L17.3691 18.1584C17.1607 18.0542 16.9308 18 16.6978 18H15.1772C14.9442 18 14.7143 18.0542 14.5059 18.1584L13.3228 18.75H10.6772L9.49406 18.1584C9.28566 18.0542 9.05583 18 8.82281 18H7.30219C7.06917 18 6.83934 18.0542 6.63094 18.1584L5.44781 18.75H3V16.5H21V18.75Z"/>
</svg>

<svg viewBox="0 0 24 24" xmlns="http://www.w3.org/2000/svg" aria-hidden="true" fill="currentColor"><path d="M17.25 10.5h-3V5.25a1.5 1.5 0 0 0-1.5-1.5H2.25a.75.75 0 0 0-.7 1.018c1.037 2.704.82 7.848-.02 10.775a.8.8 0 0 0-.03.207v3a1.5 1.5 0 0 0 1.5 1.5h2.448a1.5 1.5 0 0 0 .671-.158l1.183-.592h1.52l1.184.592c.208.104.438.158.671.158h2.646c.233 0 .463-.054.671-.158l1.183-.592h1.52l1.184.592c.208.104.438.158.671.158H21a1.5 1.5 0 0 0 1.5-1.5v-3a5.256 5.256 0 0 0-5.25-5.25M3.268 5.25h9.482V7.5h-3a.75.75 0 0 0 0 1.5h3v1.5h-3a.75.75 0 1 0 0 1.5h7.5a3.76 3.76 0 0 1 3.675 3H3.211c.633-2.891.765-6.953.057-9.75M21 18.75h-2.448l-1.183-.592a1.5 1.5 0 0 0-.671-.158h-1.52c-.234 0-.464.054-.672.158l-1.183.592h-2.646l-1.183-.592A1.5 1.5 0 0 0 8.823 18h-1.52a1.5 1.5 0 0 0-.672.158l-1.183.592H3V16.5h18z"/></svg>
